!!!COM:	Bach, Johann Sebastian
!!!CDT:	1685/02/21/-1750/07/28/
!!!OTL@@DE:	Hilf, Gott, la&szlig; mir's gelingen
!!!PC#:	302
!!!AGN:	chorale
!!!ONB: Same as No. 199
**kern	**kern	**kern	**kern
*ICvox	*ICvox	*ICvox	*ICvox
*Ibass	*Itenor	*Ialto	*Isoprn
*I"Bass	*I"Tenor	*I"Alto	*I"Soprano
*>[A,A,B]	*>[A,A,B]	*>[A,A,B]	*>[A,A,B]
*>norep[A,B]	*>norep[A,B]	*>norep[A,B]	*>norep[A,B]
*>A	*>A	*>A	*>A
*clefF4	*clefGv2	*clefG2	*clefG2
*k[b-]	*k[b-]	*k[b-]	*k[b-]
*g:dor	*g:dor	*g:dor	*g:dor
*M3/4	*M3/4	*M3/4	*M3/4
*MM100	*MM100	*MM100	*MM100
4G	4B-	8dL	4g
.	.	8e-J	.
=1	=1	=1	=1
2F	[2c	[2f	2a
4C	8.cL]	8fL]	4g
.	.	8eJ	.
.	16B-Jk	.	.
=2	=2	=2	=2
2D	4A	4d	2f
.	4.F	4A	.
4BB-	.	4B-	4d
.	8G	.	.
=3	=3	=3	=3
2AA	2A	8cL	2.f
.	.	8e-J	.
.	.	8dL	.
.	.	8cJ	.
4D	8GL	4B	.
.	8FJ	.	.
=4	=4	=4	=4
2C;	2c;	2enX;	2g;
4AA	4c	8eL	4a
.	.	8f#J	.
=5	=5	=5	=5
2GG	4.d	8gL	2b-
.	.	8f#J	.
.	.	[2g	.
.	8cL	.	.
4BB-	8B-	.	4dd
.	8AJ	.	.
=6	=6	=6	=6
2E-	8GL	4.g]	2cc
.	8F#J	.	.
.	8GL	.	.
.	8AJ	8f#	.
4D	4d	4g	4b-
=7	=7	=7	=7
4C	4e-	2g	2.a
4D	8dL	.	.
.	8A	.	.
4DD	8d	4f#	.
.	8cJ	.	.
=8	=8	=8	=8
2GG;	2B-;	2d;	2g;
=:|!	=:|!	=:|!	=:|!
*>B	*>B	*>B	*>B
4EnX	8cL	[4g	4cc
.	8B-J	.	.
=9	=9	=9	=9
4F	4A	8gL]	2cc
.	.	[8fJ	.
4G	4B-	8fL]	.
.	.	8eJ	.
4A	[4c	[4f	4cc
=10	=10	=10	=10
2B-	4c]	8fL]	2dd
.	.	8e	.
.	4B-	8f	.
.	.	8gJ	.
8FL	4c	8aL	4cc
8EJ	.	8gJ	.
=11	=11	=11	=11
8DL	2d	[2f	4b-
8CJ	.	.	.
4BB-	.	.	4a
4C	8GL	8fL]	4g
.	8cJ	8eJ	.
=12	=12	=12	=12
2FF;	2A;	2c;	2f;
8BB-L	8B-L	4d	4f
8AAJ	8cJ	.	.
=13	=13	=13	=13
4GG	8dL	2g	2b-
.	8B-J	.	.
4G	4.e-	.	.
4F#	.	[4a	4a
.	8d	.	.
=14	=14	=14	=14
4G	2d	8aL]	2b-
.	.	8dJ	.
8FnXL	.	4g	.
8E-J	.	.	.
8DL	4e-X	4a	4cc
8CJ	.	.	.
=15	=15	=15	=15
4BB-	4f	8b-L	2dd
.	.	8aJ	.
4B-	8e-L	4.g	.
.	8dJ	.	.
4A	8e-L	.	4cc
.	8cJ	8f#	.
=16	=16	=16	=16
4G	8dL	4g	4.b-
.	8e-J	.	.
4F	8fnXL	4.d	.
.	8FnXJ	.	8a
4E-X	4G	.	4g
.	.	8c	.
=17	=17	=17	=17
2D;	2A;	2d;	2f#;
4D	[4d	4f#	4a
=18	=18	=18	=18
4.G	8dL]	2g	2b-
.	8B-J	.	.
.	4e-	.	.
8E-X	.	.	.
[4B-	8dL	4fnX	4dd
.	8B-J	.	.
=19	=19	=19	=19
4B-]	4G	8ennXXL	2cc
.	.	8d	.
4A	8cL	8e	.
.	8AJ	8f#J	.
4G	8B-L	4g	4b-
.	8dJ	.	.
=20	=20	=20	=20
4C	8e-L	2g	2.a
.	8d	.	.
4AA	8c	.	.
.	8B-	.	.
4D	8c	4f#	.
.	8AJ	.	.
=21	=21	=21	=21
2GG;	2B;	2d;	2g;
==	==	==	==
*-	*-	*-	*-
!!!hum2abc: -Q ''
!!!title: @{PC#}. @{OTL@@DE}
!!!YOR1: 371 vierstimmige Choralges&auml;nge von Johann Sebastian Bach, 
!!!YOR2: 4th ed. by Alfred D&ouml;rffel (Leipzig: Breitkopf und H&auml;rtel, 
!!!YOR2: c.1875). 178 pp. Plate "V.A.10".  reprint: J.S. Bach, 371 Four-Part 
!!!YOR4: Chorales (New York: Associated Music Publishers, Inc., c.1940).
!!!SMS: B&H, 4th ed, Alfred D&ouml;rffel, c.1875, plate V.A.10
!!!EED:  Craig Stuart Sapp
!!!EEV:  2009/05/22
